_inc/logos/pv1000.svg

<svg xmlns="http://www.w3.org/2000/svg" width="800" height="244pt" viewBox="0 0 600 244">
    <g style="fill:#3771c8" fill="#1f528c">
        <path d="M311.8 20.87c6.58-3.31 14-4.17 21.23-4.91 8.85.24 17.72 2.33 25.61 6.38 6.02 3.25 9.17 10.05 9.57 16.65-.07 5.59-2.55 10.91-6.14 15.11-5.01 4.74-12.44 6.46-19.11 4.84-4.71-.49-9.06-4.36-13.91-2.5-4.18 1.09-4.32 8.78.26 9.27 11.44 2.55 23.35 5.6 32.35 13.58 6.73 5.25 10.32 13.17 15.18 19.96.46-1.71.97-3.44.99-5.22-.16-18.35-.04-36.7-.07-55.05.06-9.46 6.93-18.66 16.32-20.62 10.95-2.62 23.35 5.15 24.85 16.52.73 9.36.21 18.77.44 28.14.03 2.43.83 4.75 1.36 7.1 5.07-11.34 10.64-22.85 19.87-31.44 9.83-10.28 22.88-17.22 36.67-20.48 5.46-1.39 11.13-1.51 16.71-2.21 16.34.28 32.94 4.96 46.11 14.89 22.29 16.1 34.45 45.03 30.56 72.22-2.14 14.79-9.06 28.61-18.69 39.94-14.28 15.45-34.62 25.75-55.87 25.84-30.43 1.3-60.4-18.01-71.88-46.19-.88-2.4-2.08-4.67-3.5-6.79-.47 1.03-1.2 1.98-1.3 3.13-.29 10.03.13 20.07-.37 30.09-1.28 5.42-3.79 11.22-8.87 14.07-6.09 3.83-14.11 4.52-20.61 1.31-7.88-3.35-11.92-12.33-11.76-20.52.18-3.75-.49-7.44-.77-11.15-1.44 3.68-3.96 6.76-5.89 10.17-3.09 5.46-8.08 9.44-12.61 13.65-17.28 13.09-42.66 13.34-60.69 1.58-3.4-2.23-6.18-5.4-10.06-6.85-2.03 3.67-3.44 7.85-6.74 10.63-7.84 7.21-21.11 6.99-28.74-.39-4.18-4.65-5.73-10.93-8.97-16.16-1.21-.99-2.95-.54-4.38-.71-15.33.06-30.67-.07-46.01.14-1.09.11-2.17.25-3.24.43-3.43 6.65-5.49 14.9-12.37 18.94-6.87 4.74-16.45 4.18-23.31-.25-2.13-1.25-3.55-3.79-6.05-4.29-3.86.72-7.06 3.24-10.78 4.4-8.83 2.7-17.92 4.93-27.21 4.97-10.25.42-20.42-1.68-30.15-4.76-10.26-3.43-18.95-10.2-27.15-17.05-7.75-8.12-14.22-17.64-17.87-28.32-4.29-12.01-6.85-25.22-3.97-37.87C33.9 63.58 43.33 47.24 57.02 35.9c11-9.19 24.73-15.03 38.96-16.68 16.28-2.34 32.89.97 47.94 7.23 8.32 3.82 16.19 11.01 17.14 20.59 1.5 11.38-8.39 22.77-20.04 22.09-6.95.81-12.28-4.33-18.44-6.47-10.19-3.56-21.83-3.41-31.58 1.42-8.62 4.69-16.31 12.19-18.63 22.01-5.15 18.72 9.84 39.42 28.8 41.75 1.9.39 3.83.8 5.78.61 6.13-.54 12.48-.62 18.19-3.17 4.27-1.49 7.8-4.65 12.23-5.68 4.3-.69 8.94-.75 12.93 1.22 1.72.64 4.42 2.52 5.42-.06 12.74-27.99 25.68-55.89 38.35-83.9 2.85-6.48 7.21-13.22 14.34-15.42 8.74-3.23 20.08.42 24.02 9.2 10.93 22.36 21.3 44.99 32.73 67.11 3.97 8.83 8.74 17.29 12.45 26.23 2.53.06 3.02-2.62 4.13-4.34 4.76-8.56 16.7-12.24 25.45-7.83 7.89 3.12 11.48 12.25 19.66 14.88 7.3 1.56 14.83-7.49 10.53-14.11-4.18-7.03-13.06-7.13-20.12-8.82-10.68-2.16-20.32-9.05-25.43-18.71-6.27-10.39-8.41-23.3-5.18-35.06 2.72-13.18 13.13-23.74 25.15-29.12m174.36 38.35c-9.4 2.6-17.81 9.02-22.25 17.77-4.4 7.74-4.68 17.26-2.59 25.75 4.63 17.71 25.4 28.87 42.77 23.21 8.34-2.11 15.17-8.08 20.07-14.95 5.12-8.31 6.84-18.77 3.97-28.17-2.99-9.18-9.7-17.22-18.48-21.35-7.2-3.68-15.71-3.97-23.49-2.26M213.64 87.79c-1.86 6.74-5.8 12.71-7.44 19.5 6.49.21 13 .49 19.49-.01-1.71-7.03-5.63-13.27-8.33-19.94-.5-1.88-3.81-1.66-3.72.45ZM301.76 184.74c5.63-3.91 12.42-6.59 19.34-6.42 6.19 1.08 12.66 2.84 17.37 7.24 2.15 1.88 3.7 4.33 5.77 6.3 1.4.55 2.4-.41 2.96-1.62 2.92-5.74 8.95-9.02 14.78-11.12 11.22-4.11 24.46 1.17 31.01 10.86.75.99 1.44 2.3 2.92 2.03 2.96-3.06 5.34-6.8 9.15-8.93 6.77-3.93 15.13-7.02 22.85-3.94 9.59 2.59 18.26 10.18 20 20.26 4.15 14.22-5.65 30.34-19.97 33.69-11.29 3.54-24.13-1.91-30.56-11.58-.79-1.86-3.22-1.96-4.01-.04-4.78 7.57-13.69 11.7-22.35 12.71-10.03 0-20.49-5.21-25.36-14.23-1.17.24-2.46.38-3.01 1.6-4.15 6.23-10.63 11.01-18.12 12.16-8.41 1.93-17.26-1.04-23.76-6.45-2.19-1.86-3.83-4.28-6.08-6.06-.27.08-.82.25-1.09.33-.91 3.61.01 8.19-3.15 10.87-4.01 2.78-10.98.74-11.75-4.49-1.5-8.91.11-18.06-.84-27.03-1.87-.99-4.11-.23-6.12-.69-4.48-1.89-6.31-8.52-2.46-11.94 3.88-2.84 7.96-5.46 12.06-7.98 3.33-2.19 8.21-1.32 10.37 2.1 2.54 2.94 1.04 7.01 1.83 10.49 3.33-2.08 5.04-5.86 8.22-8.12m64.68 8.01c-3.5 1.36-6.99 3.65-8.46 7.26-2.08 3.83-1.48 8.37-.27 12.37 2.44 3.78 6.34 7.53 11.23 7.1 8.35 1.05 15.63-7.35 14.49-15.44-.49-8.04-9.4-13.85-16.99-11.29m-51.12.82c-5.61 1.92-9.98 7.32-9.27 13.45-.28 5.52 3.91 10.31 8.83 12.19 3.89.59 8.4 1.01 11.73-1.55 5.14-3.17 7.44-9.84 5.99-15.61-2.56-6.53-10.38-11.56-17.28-8.48m101.06-.14c-4.87 2.26-9.3 6.8-8.86 12.56-.56 6.04 3.79 11.59 9.44 13.27 3.32.21 7.06.74 10-1.21 3.97-2.66 7.65-6.95 7.03-12.06 1.1-8.88-9.64-16.15-17.61-12.56ZM225.5 184.37c1.24-2.65 3.51-4.98 6.45-5.63 3.51-.26 6.32 2.49 8.08 5.23.28 6.01-3.8 10.95-5.57 16.45-5.04 10.01-9.66 20.26-14.85 30.2-1.98 4.71-9.48 5.19-12.08.85-2.47-3.48-4.07-7.45-5.92-11.26-3.13-6.73-6.61-13.3-9.8-20-.53-.03-1.58-.07-2.11-.09-1.4 4.85-4.73 9.25-9.54 11.1-4.17 1.93-8.84.85-13.25 1.36-2.32 1.72-1.25 4.95-1.54 7.4-.36 4.37 1.01 9.63-2.43 13.09-4.54 3.79-12.28-.08-11.78-6-1.52-12.31-1.23-24.72-1.11-37.09.3-3.44.37-8.11 4.12-9.68 3.86-.99 7.93-.56 11.88-.62 5.07.25 10.6-.69 15.16 2.11 1.57.68 2.92 2.17 4.7 2.16 2.58-1.06 3.93-4.51 7.09-4.29 3.13-.7 5.87 1.33 7.29 3.98 4.01 7.86 7.62 15.94 11.43 23.9 1.21 1.83 2.76.02 3.41-1.28 3.56-7.25 6.89-14.6 10.37-21.89m-60.27 8.9c-.32 1.98-.23 3.99.06 5.97 3.2.25 6.45.52 9.63-.02 2.03-1.19 1.12-4.08.86-5.98-3.5-.62-7.06-.57-10.55.03ZM241.41 199.6c6.19-.72 12.5-.31 18.73-.12 4.12.1 6.66 4.79 5.82 8.52-1.02 2.89-3.79 5.54-6.99 5.47-5.31.03-10.62.06-15.92-.06-3.93-.05-6.39-3.94-6.95-7.44.04-2.97 2.59-5.53 5.31-6.37Z" style="fill:#3771c8"/>
    </g>
</svg>

<?xml version="1.0" encoding="UTF-8" standalone="no"?>
<svg
   xmlns:dc="http://purl.org/dc/elements/1.1/"
   xmlns:cc="http://creativecommons.org/ns#"
   xmlns:rdf="http://www.w3.org/1999/02/22-rdf-syntax-ns#"
   xmlns:svg="http://www.w3.org/2000/svg"
   xmlns="http://www.w3.org/2000/svg"
   xmlns:sodipodi="http://sodipodi.sourceforge.net/DTD/sodipodi-0.dtd"
   xmlns:inkscape="http://www.inkscape.org/namespaces/inkscape"
   width="600pt"
   height="244pt"
   viewBox="0 0 600 244"
   version="1.1"
   id="svg12"
   sodipodi:docname="pv1000.svg"
   inkscape:version="0.92.4 (5da689c313, 2019-01-14)">
  <metadata
     id="metadata18">
    <rdf:RDF>
      <cc:Work
         rdf:about="">
        <dc:format>image/svg+xml</dc:format>
        <dc:type
           rdf:resource="http://purl.org/dc/dcmitype/StillImage" />
        <dc:title></dc:title>
      </cc:Work>
    </rdf:RDF>
  </metadata>
  <defs
     id="defs16" />
  <sodipodi:namedview
     pagecolor="#ffffff"
     bordercolor="#666666"
     borderopacity="1"
     objecttolerance="10"
     gridtolerance="10"
     guidetolerance="10"
     inkscape:pageopacity="0"
     inkscape:pageshadow="2"
     inkscape:window-width="640"
     inkscape:window-height="480"
     id="namedview14"
     showgrid="false"
     inkscape:zoom="0.44625"
     inkscape:cx="0"
     inkscape:cy="162.66667"
     inkscape:current-layer="svg12" />
  <g
     id="#ffffffff"
     style="fill:#3771c8" />
  <g
     id="#1f528cff"
     style="fill:#3771c8">
    <path
       fill="#1f528c"
       opacity="1.00"
       d=" M 311.80 20.87 C 318.38 17.56 325.80 16.70 333.03 15.96 C 341.88 16.20 350.75 18.29 358.64 22.34 C 364.66 25.59 367.81 32.39 368.21 38.99 C 368.14 44.58 365.66 49.90 362.07 54.10 C 357.06 58.84 349.63 60.56 342.96 58.94 C 338.25 58.45 333.90 54.58 329.05 56.44 C 324.87 57.53 324.73 65.22 329.31 65.71 C 340.75 68.26 352.66 71.31 361.66 79.29 C 368.39 84.54 371.98 92.46 376.84 99.25 C 377.30 97.54 377.81 95.81 377.83 94.03 C 377.67 75.68 377.79 57.33 377.76 38.98 C 377.82 29.52 384.69 20.32 394.08 18.36 C 405.03 15.74 417.43 23.51 418.93 34.88 C 419.66 44.24 419.14 53.65 419.37 63.02 C 419.40 65.45 420.20 67.77 420.73 70.12 C 425.80 58.78 431.37 47.27 440.60 38.68 C 450.43 28.40 463.48 21.46 477.27 18.20 C 482.73 16.81 488.40 16.69 493.98 15.99 C 510.32 16.27 526.92 20.95 540.09 30.88 C 562.38 46.98 574.54 75.91 570.65 103.10 C 568.51 117.89 561.59 131.71 551.96 143.04 C 537.68 158.49 517.34 168.79 496.09 168.88 C 465.66 170.18 435.69 150.87 424.21 122.69 C 423.33 120.29 422.13 118.02 420.71 115.90 C 420.24 116.93 419.51 117.88 419.41 119.03 C 419.12 129.06 419.54 139.10 419.04 149.12 C 417.76 154.54 415.25 160.34 410.17 163.19 C 404.08 167.02 396.06 167.71 389.56 164.50 C 381.68 161.15 377.64 152.17 377.80 143.98 C 377.98 140.23 377.31 136.54 377.03 132.83 C 375.59 136.51 373.07 139.59 371.14 143.00 C 368.05 148.46 363.06 152.44 358.53 156.65 C 341.25 169.74 315.87 169.99 297.84 158.23 C 294.44 156.00 291.66 152.83 287.78 151.38 C 285.75 155.05 284.34 159.23 281.04 162.01 C 273.20 169.22 259.93 169.00 252.30 161.62 C 248.12 156.97 246.57 150.69 243.33 145.46 C 242.12 144.47 240.38 144.92 238.95 144.75 C 223.62 144.81 208.28 144.68 192.94 144.89 C 191.85 145.00 190.77 145.14 189.70 145.32 C 186.27 151.97 184.21 160.22 177.33 164.26 C 170.46 169.00 160.88 168.44 154.02 164.01 C 151.89 162.76 150.47 160.22 147.97 159.72 C 144.11 160.44 140.91 162.96 137.19 164.12 C 128.36 166.82 119.27 169.05 109.98 169.09 C 99.73 169.51 89.56 167.41 79.83 164.33 C 69.57 160.90 60.88 154.13 52.68 147.28 C 44.93 139.16 38.46 129.64 34.81 118.96 C 30.52 106.95 27.96 93.74 30.84 81.09 C 33.90 63.58 43.33 47.24 57.02 35.90 C 68.02 26.71 81.75 20.87 95.98 19.22 C 112.26 16.88 128.87 20.19 143.92 26.45 C 152.24 30.27 160.11 37.46 161.06 47.04 C 162.56 58.42 152.67 69.81 141.02 69.13 C 134.07 69.94 128.74 64.80 122.58 62.66 C 112.39 59.10 100.75 59.25 91.00 64.08 C 82.38 68.77 74.69 76.27 72.37 86.09 C 67.22 104.81 82.21 125.51 101.17 127.84 C 103.07 128.23 105.00 128.64 106.95 128.45 C 113.08 127.91 119.43 127.83 125.14 125.28 C 129.41 123.79 132.94 120.63 137.37 119.60 C 141.67 118.91 146.31 118.85 150.30 120.82 C 152.02 121.46 154.72 123.34 155.72 120.76 C 168.46 92.77 181.40 64.87 194.07 36.86 C 196.92 30.38 201.28 23.64 208.41 21.44 C 217.15 18.21 228.49 21.86 232.43 30.64 C 243.36 53.00 253.73 75.63 265.16 97.75 C 269.13 106.58 273.90 115.04 277.61 123.98 C 280.14 124.04 280.63 121.36 281.74 119.64 C 286.50 111.08 298.44 107.40 307.19 111.81 C 315.08 114.93 318.67 124.06 326.85 126.69 C 334.15 128.25 341.68 119.20 337.38 112.58 C 333.20 105.55 324.32 105.45 317.26 103.76 C 306.58 101.60 296.94 94.71 291.83 85.05 C 285.56 74.66 283.42 61.75 286.65 49.99 C 289.37 36.81 299.78 26.25 311.80 20.87 M 486.16 59.22 C 476.76 61.82 468.35 68.24 463.91 76.99 C 459.51 84.73 459.23 94.25 461.32 102.74 C 465.95 120.45 486.72 131.61 504.09 125.95 C 512.43 123.84 519.26 117.87 524.16 111.00 C 529.28 102.69 531.00 92.23 528.13 82.83 C 525.14 73.65 518.43 65.61 509.65 61.48 C 502.45 57.80 493.94 57.51 486.16 59.22 M 213.64 87.79 C 211.78 94.53 207.84 100.50 206.20 107.29 C 212.69 107.50 219.20 107.78 225.69 107.28 C 223.98 100.25 220.06 94.01 217.36 87.34 C 216.86 85.46 213.55 85.68 213.64 87.79 Z"
       id="path3"
       style="fill:#3771c8" />
    <path
       fill="#1f528c"
       opacity="1.00"
       d=" M 301.76 184.74 C 307.39 180.83 314.18 178.15 321.10 178.32 C 327.29 179.40 333.76 181.16 338.47 185.56 C 340.62 187.44 342.17 189.89 344.24 191.86 C 345.64 192.41 346.64 191.45 347.20 190.24 C 350.12 184.50 356.15 181.22 361.98 179.12 C 373.20 175.01 386.44 180.29 392.99 189.98 C 393.74 190.97 394.43 192.28 395.91 192.01 C 398.87 188.95 401.25 185.21 405.06 183.08 C 411.83 179.15 420.19 176.06 427.91 179.14 C 437.50 181.73 446.17 189.32 447.91 199.40 C 452.06 213.62 442.26 229.74 427.94 233.09 C 416.65 236.63 403.81 231.18 397.38 221.51 C 396.59 219.65 394.16 219.55 393.37 221.47 C 388.59 229.04 379.68 233.17 371.02 234.18 C 360.99 234.18 350.53 228.97 345.66 219.95 C 344.49 220.19 343.20 220.33 342.65 221.55 C 338.50 227.78 332.02 232.56 324.53 233.71 C 316.12 235.64 307.27 232.67 300.77 227.26 C 298.58 225.40 296.94 222.98 294.69 221.20 C 294.42 221.28 293.87 221.45 293.60 221.53 C 292.69 225.14 293.61 229.72 290.45 232.40 C 286.44 235.18 279.47 233.14 278.70 227.91 C 277.20 219.00 278.81 209.85 277.86 200.88 C 275.99 199.89 273.75 200.65 271.74 200.19 C 267.26 198.30 265.43 191.67 269.28 188.25 C 273.16 185.41 277.24 182.79 281.34 180.27 C 284.67 178.08 289.55 178.95 291.71 182.37 C 294.25 185.31 292.75 189.38 293.54 192.86 C 296.87 190.78 298.58 187.00 301.76 184.74 M 366.44 192.75 C 362.94 194.11 359.45 196.40 357.98 200.01 C 355.90 203.84 356.50 208.38 357.71 212.38 C 360.15 216.16 364.05 219.91 368.94 219.48 C 377.29 220.53 384.57 212.13 383.43 204.04 C 382.94 196.00 374.03 190.19 366.44 192.75 M 315.32 193.57 C 309.71 195.49 305.34 200.89 306.05 207.02 C 305.77 212.54 309.96 217.33 314.88 219.21 C 318.77 219.80 323.28 220.22 326.61 217.66 C 331.75 214.49 334.05 207.82 332.60 202.05 C 330.04 195.52 322.22 190.49 315.32 193.57 M 416.38 193.43 C 411.51 195.69 407.08 200.23 407.52 205.99 C 406.96 212.03 411.31 217.58 416.96 219.26 C 420.28 219.47 424.02 220.00 426.96 218.05 C 430.93 215.39 434.61 211.10 433.99 205.99 C 435.09 197.11 424.35 189.84 416.38 193.43 Z"
       id="path5"
       style="fill:#3771c8" />
    <path
       fill="#1f528c"
       opacity="1.00"
       d=" M 225.50 184.37 C 226.74 181.72 229.01 179.39 231.95 178.74 C 235.46 178.48 238.27 181.23 240.03 183.97 C 240.31 189.98 236.23 194.92 234.46 200.42 C 229.42 210.43 224.80 220.68 219.61 230.62 C 217.63 235.33 210.13 235.81 207.53 231.47 C 205.06 227.99 203.46 224.02 201.61 220.21 C 198.48 213.48 195.00 206.91 191.81 200.21 C 191.28 200.18 190.23 200.14 189.70 200.12 C 188.30 204.97 184.97 209.37 180.16 211.22 C 175.99 213.15 171.32 212.07 166.91 212.58 C 164.59 214.30 165.66 217.53 165.37 219.98 C 165.01 224.35 166.38 229.61 162.94 233.07 C 158.40 236.86 150.66 232.99 151.16 227.07 C 149.64 214.76 149.93 202.35 150.05 189.98 C 150.35 186.54 150.42 181.87 154.17 180.30 C 158.03 179.31 162.10 179.74 166.05 179.68 C 171.12 179.93 176.65 178.99 181.21 181.79 C 182.78 182.47 184.13 183.96 185.91 183.95 C 188.49 182.89 189.84 179.44 193.00 179.66 C 196.13 178.96 198.87 180.99 200.29 183.64 C 204.30 191.50 207.91 199.58 211.72 207.54 C 212.93 209.37 214.48 207.56 215.13 206.26 C 218.69 199.01 222.02 191.66 225.50 184.37 M 165.23 193.27 C 164.91 195.25 165.00 197.26 165.29 199.24 C 168.49 199.49 171.74 199.76 174.92 199.22 C 176.95 198.03 176.04 195.14 175.78 193.24 C 172.28 192.62 168.72 192.67 165.23 193.27 Z"
       id="path7"
       style="fill:#3771c8" />
    <path
       fill="#1f528c"
       opacity="1.00"
       d=" M 241.41 199.60 C 247.60 198.88 253.91 199.29 260.14 199.48 C 264.26 199.58 266.80 204.27 265.96 208.00 C 264.94 210.89 262.17 213.54 258.97 213.47 C 253.66 213.50 248.35 213.53 243.05 213.41 C 239.12 213.36 236.66 209.47 236.10 205.97 C 236.14 203.00 238.69 200.44 241.41 199.60 Z"
       id="path9"
       style="fill:#3771c8" />
  </g>
</svg>
